TileServer und Tiles/svg/5/2_2.svg

<?xml version='1.0' encoding='UTF-8' standalone='no'?>
<svg width="497pt" viewBox="0 0 497 279" xmlns:xlink="http://www.w3.org/1999/xlink" xmlns="http://www.w3.org/2000/svg" height="279pt">
 <defs overflow="visible" style="stroke:none;">
  <path d="M 1.296875 0 L 0.171875 0 L 1.859375 -2.46875 C 1.628906 -2.53125 1.40625 -2.625 1.1875 -2.75 C 0.976562 -2.882812 0.804688 -3.066406 0.671875 -3.296875 C 0.546875 -3.523438 0.484375 -3.8125 0.484375 -4.15625 C 0.484375 -4.71875 0.671875 -5.144531 1.046875 -5.4375 C 1.429688 -5.738281 1.941406 -5.890625 2.578125 -5.890625 L 5.21875 -5.890625 L 5.21875 0 L 4.25 0 L 4.25 -2.34375 L 2.8125 -2.34375 Z M 1.421875 -4.140625 C 1.421875 -3.804688 1.546875 -3.554688 1.796875 -3.390625 C 2.046875 -3.222656 2.398438 -3.140625 2.859375 -3.140625 L 4.25 -3.140625 L 4.25 -5.09375 L 2.671875 -5.09375 C 2.222656 -5.09375 1.898438 -5.003906 1.703125 -4.828125 C 1.515625 -4.648438 1.421875 -4.421875 1.421875 -4.140625 Z M 1.421875 -4.140625 " id="glyph0-5"/>
  <path d="M 1.84375 -5.890625 L 1.84375 -2.296875 C 1.84375 -2.210938 1.835938 -2.082031 1.828125 -1.90625 C 1.828125 -1.726562 1.820312 -1.550781 1.8125 -1.375 C 1.800781 -1.195312 1.789062 -1.054688 1.78125 -0.953125 L 4.9375 -5.890625 L 6.125 -5.890625 L 6.125 0 L 5.21875 0 L 5.21875 -3.46875 C 5.21875 -3.59375 5.21875 -3.75 5.21875 -3.9375 C 5.226562 -4.125 5.238281 -4.3125 5.25 -4.5 C 5.257812 -4.6875 5.265625 -4.828125 5.265625 -4.921875 L 2.140625 0 L 0.9375 0 L 0.9375 -5.890625 Z M 1.84375 -5.890625 " id="glyph0-4"/>
  <path d="M 3.296875 0.109375 C 2.773438 0.109375 2.3125 0.00390625 1.90625 -0.203125 C 1.5 -0.421875 1.179688 -0.753906 0.953125 -1.203125 C 0.722656 -1.648438 0.609375 -2.222656 0.609375 -2.921875 C 0.609375 -3.640625 0.726562 -4.226562 0.96875 -4.6875 C 1.207031 -5.144531 1.535156 -5.476562 1.953125 -5.6875 C 2.367188 -5.894531 2.835938 -6 3.359375 -6 C 3.660156 -6 3.953125 -5.96875 4.234375 -5.90625 C 4.515625 -5.84375 4.742188 -5.769531 4.921875 -5.6875 L 4.625 -4.890625 C 4.445312 -4.953125 4.238281 -5.007812 4 -5.0625 C 3.769531 -5.125 3.550781 -5.15625 3.34375 -5.15625 C 2.1875 -5.15625 1.609375 -4.410156 1.609375 -2.921875 C 1.609375 -2.210938 1.75 -1.664062 2.03125 -1.28125 C 2.3125 -0.90625 2.726562 -0.71875 3.28125 -0.71875 C 3.601562 -0.71875 3.890625 -0.75 4.140625 -0.8125 C 4.390625 -0.882812 4.613281 -0.96875 4.8125 -1.0625 L 4.8125 -0.203125 C 4.613281 -0.109375 4.394531 -0.0351562 4.15625 0.015625 C 3.925781 0.078125 3.640625 0.109375 3.296875 0.109375 Z M 3.296875 0.109375 " id="glyph0-3"/>
  <path d="M 6.0625 -2.953125 C 6.0625 -1.984375 5.8125 -1.226562 5.3125 -0.6875 C 4.820312 -0.15625 4.15625 0.109375 3.3125 0.109375 C 2.789062 0.109375 2.328125 -0.0078125 1.921875 -0.25 C 1.515625 -0.488281 1.191406 -0.835938 0.953125 -1.296875 C 0.722656 -1.753906 0.609375 -2.304688 0.609375 -2.953125 C 0.609375 -3.929688 0.851562 -4.679688 1.34375 -5.203125 C 1.832031 -5.734375 2.5 -6 3.34375 -6 C 3.875 -6 4.34375 -5.878906 4.75 -5.640625 C 5.164062 -5.410156 5.488281 -5.066406 5.71875 -4.609375 C 5.945312 -4.160156 6.0625 -3.609375 6.0625 -2.953125 Z M 1.609375 -2.953125 C 1.609375 -2.253906 1.742188 -1.703125 2.015625 -1.296875 C 2.296875 -0.890625 2.734375 -0.6875 3.328125 -0.6875 C 3.921875 -0.6875 4.359375 -0.890625 4.640625 -1.296875 C 4.921875 -1.703125 5.0625 -2.253906 5.0625 -2.953125 C 5.0625 -3.648438 4.921875 -4.195312 4.640625 -4.59375 C 4.359375 -4.988281 3.921875 -5.1875 3.328125 -5.1875 C 2.722656 -5.1875 2.285156 -4.988281 2.015625 -4.59375 C 1.742188 -4.195312 1.609375 -3.648438 1.609375 -2.953125 Z M 1.609375 -2.953125 " id="glyph0-2"/>
  <path d="M 3.140625 -7.859375 C 4.171875 -7.859375 4.921875 -7.65625 5.390625 -7.25 C 5.859375 -6.84375 6.09375 -6.273438 6.09375 -5.546875 C 6.09375 -5.109375 5.992188 -4.703125 5.796875 -4.328125 C 5.609375 -3.953125 5.285156 -3.644531 4.828125 -3.40625 C 4.367188 -3.175781 3.742188 -3.0625 2.953125 -3.0625 L 2.0625 -3.0625 L 2.0625 0 L 1.0625 0 L 1.0625 -7.859375 Z M 3.0625 -7 L 2.0625 -7 L 2.0625 -3.90625 L 2.84375 -3.90625 C 3.59375 -3.90625 4.148438 -4.023438 4.515625 -4.265625 C 4.890625 -4.503906 5.078125 -4.914062 5.078125 -5.5 C 5.078125 -6.007812 4.914062 -6.382812 4.59375 -6.625 C 4.269531 -6.875 3.757812 -7 3.0625 -7 Z M 3.0625 -7 " id="glyph0-1"/>
  <path d="M 1.03125 0 L 1.03125 -7.859375 L 5.5625 -7.859375 L 5.5625 0 Z M 1.59375 -0.5625 L 5 -0.5625 L 5 -7.296875 L 1.59375 -7.296875 Z M 1.59375 -0.5625 " id="glyph0-0"/>
 </defs>
 <image xlink:href="svg/5/2_2.jpg" width="497" height="279"/>
 <g>
  <path d="M 246.226562 153.085938 C 247.257812 153.085938 248.007812 153.289062 248.476562 153.695312 C 248.945312 154.101562 249.179688 154.671875 249.179688 155.398438 C 249.179688 155.835938 249.078125 156.242188 248.882812 156.617188 C 248.695312 156.992188 248.371094 157.300781 247.914062 157.539062 C 247.453125 157.769531 246.828125 157.882812 246.039062 157.882812 L 245.148438 157.882812 L 245.148438 160.945312 L 244.148438 160.945312 L 244.148438 153.085938 Z M 246.148438 153.945312 L 245.148438 153.945312 L 245.148438 157.039062 L 245.929688 157.039062 C 246.679688 157.039062 247.234375 156.921875 247.601562 156.679688 C 247.976562 156.441406 248.164062 156.03125 248.164062 155.445312 C 248.164062 154.9375 248 154.5625 247.679688 154.320312 C 247.355469 154.070312 246.84375 153.945312 246.148438 153.945312 Z M 246.148438 153.945312 " transform=" rotate(  340 263.386 157.946) " style="fill:none;stroke-width:3;stroke-linecap:butt;stroke-linejoin:round;stroke:rgb(100%,100%,100%);stroke-opacity:0.6;stroke-miterlimit:10;"/>
  <path d="M 256.304688 157.992188 C 256.304688 158.960938 256.054688 159.71875 255.554688 160.257812 C 255.0625 160.789062 254.398438 161.054688 253.554688 161.054688 C 253.03125 161.054688 252.570312 160.9375 252.164062 160.695312 C 251.757812 160.457031 251.433594 160.109375 251.195312 159.648438 C 250.964844 159.191406 250.851562 158.640625 250.851562 157.992188 C 250.851562 157.015625 251.09375 156.265625 251.585938 155.742188 C 252.074219 155.210938 252.742188 154.945312 253.585938 154.945312 C 254.117188 154.945312 254.585938 155.066406 254.992188 155.304688 C 255.40625 155.535156 255.730469 155.878906 255.960938 156.335938 C 256.1875 156.785156 256.304688 157.335938 256.304688 157.992188 Z M 251.851562 157.992188 C 251.851562 158.691406 251.984375 159.242188 252.257812 159.648438 C 252.539062 160.054688 252.976562 160.257812 253.570312 160.257812 C 254.164062 160.257812 254.601562 160.054688 254.882812 159.648438 C 255.164062 159.242188 255.304688 158.691406 255.304688 157.992188 C 255.304688 157.296875 255.164062 156.75 254.882812 156.351562 C 254.601562 155.957031 254.164062 155.757812 253.570312 155.757812 C 252.964844 155.757812 252.527344 155.957031 252.257812 156.351562 C 251.984375 156.75 251.851562 157.296875 251.851562 157.992188 Z M 251.851562 157.992188 " transform=" rotate(  340 263.386 157.946) " style="fill:none;stroke-width:3;stroke-linecap:butt;stroke-linejoin:round;stroke:rgb(100%,100%,100%);stroke-opacity:0.6;stroke-miterlimit:10;"/>
  <path d="M 260.695312 161.054688 C 260.171875 161.054688 259.710938 160.949219 259.304688 160.742188 C 258.898438 160.523438 258.578125 160.191406 258.351562 159.742188 C 258.121094 159.296875 258.007812 158.722656 258.007812 158.023438 C 258.007812 157.304688 258.125 156.71875 258.367188 156.257812 C 258.605469 155.800781 258.933594 155.46875 259.351562 155.257812 C 259.765625 155.050781 260.234375 154.945312 260.757812 154.945312 C 261.058594 154.945312 261.351562 154.976562 261.632812 155.039062 C 261.914062 155.101562 262.140625 155.175781 262.320312 155.257812 L 262.023438 156.054688 C 261.84375 155.992188 261.636719 155.9375 261.398438 155.882812 C 261.167969 155.820312 260.949219 155.789062 260.742188 155.789062 C 259.585938 155.789062 259.007812 156.535156 259.007812 158.023438 C 259.007812 158.734375 259.148438 159.28125 259.429688 159.664062 C 259.710938 160.039062 260.125 160.226562 260.679688 160.226562 C 261 160.226562 261.289062 160.195312 261.539062 160.132812 C 261.789062 160.0625 262.011719 159.976562 262.210938 159.882812 L 262.210938 160.742188 C 262.011719 160.835938 261.792969 160.910156 261.554688 160.960938 C 261.324219 161.023438 261.039062 161.054688 260.695312 161.054688 Z M 260.695312 161.054688 " transform=" rotate(  340 263.386 157.946) " style="fill:none;stroke-width:3;stroke-linecap:butt;stroke-linejoin:round;stroke:rgb(100%,100%,100%);stroke-opacity:0.6;stroke-miterlimit:10;"/>
  <path d="M 266.472656 161.054688 C 265.949219 161.054688 265.488281 160.949219 265.082031 160.742188 C 264.675781 160.523438 264.355469 160.191406 264.128906 159.742188 C 263.898438 159.296875 263.785156 158.722656 263.785156 158.023438 C 263.785156 157.304688 263.902344 156.71875 264.144531 156.257812 C 264.382812 155.800781 264.710938 155.46875 265.128906 155.257812 C 265.542969 155.050781 266.011719 154.945312 266.535156 154.945312 C 266.835938 154.945312 267.128906 154.976562 267.410156 155.039062 C 267.691406 155.101562 267.917969 155.175781 268.097656 155.257812 L 267.800781 156.054688 C 267.621094 155.992188 267.414062 155.9375 267.175781 155.882812 C 266.945312 155.820312 266.726562 155.789062 266.519531 155.789062 C 265.363281 155.789062 264.785156 156.535156 264.785156 158.023438 C 264.785156 158.734375 264.925781 159.28125 265.207031 159.664062 C 265.488281 160.039062 265.902344 160.226562 266.457031 160.226562 C 266.777344 160.226562 267.066406 160.195312 267.316406 160.132812 C 267.566406 160.0625 267.789062 159.976562 267.988281 159.882812 L 267.988281 160.742188 C 267.789062 160.835938 267.570312 160.910156 267.332031 160.960938 C 267.101562 161.023438 266.816406 161.054688 266.472656 161.054688 Z M 266.472656 161.054688 " transform=" rotate(  340 263.386 157.946) " style="fill:none;stroke-width:3;stroke-linecap:butt;stroke-linejoin:round;stroke:rgb(100%,100%,100%);stroke-opacity:0.6;stroke-miterlimit:10;"/>
  <path d="M 270.800781 155.054688 L 270.800781 158.648438 C 270.800781 158.734375 270.792969 158.863281 270.785156 159.039062 C 270.785156 159.21875 270.777344 159.394531 270.769531 159.570312 C 270.757812 159.75 270.746094 159.890625 270.738281 159.992188 L 273.894531 155.054688 L 275.082031 155.054688 L 275.082031 160.945312 L 274.175781 160.945312 L 274.175781 157.476562 C 274.175781 157.351562 274.175781 157.195312 274.175781 157.007812 C 274.183594 156.820312 274.195312 156.632812 274.207031 156.445312 C 274.214844 156.257812 274.222656 156.117188 274.222656 156.023438 L 271.097656 160.945312 L 269.894531 160.945312 L 269.894531 155.054688 Z M 270.800781 155.054688 " transform=" rotate(  340 263.386 157.946) " style="fill:none;stroke-width:3;stroke-linecap:butt;stroke-linejoin:round;stroke:rgb(100%,100%,100%);stroke-opacity:0.6;stroke-miterlimit:10;"/>
  <path d="M 277.828125 160.945312 L 276.703125 160.945312 L 278.390625 158.476562 C 278.160156 158.414062 277.9375 158.320312 277.71875 158.195312 C 277.507812 158.0625 277.335938 157.878906 277.203125 157.648438 C 277.078125 157.421875 277.015625 157.132812 277.015625 156.789062 C 277.015625 156.226562 277.203125 155.800781 277.578125 155.507812 C 277.960938 155.207031 278.472656 155.054688 279.109375 155.054688 L 281.75 155.054688 L 281.75 160.945312 L 280.78125 160.945312 L 280.78125 158.601562 L 279.34375 158.601562 Z M 277.953125 156.804688 C 277.953125 157.140625 278.078125 157.390625 278.328125 157.554688 C 278.578125 157.722656 278.929688 157.804688 279.390625 157.804688 L 280.78125 157.804688 L 280.78125 155.851562 L 279.203125 155.851562 C 278.753906 155.851562 278.429688 155.941406 278.234375 156.117188 C 278.046875 156.296875 277.953125 156.523438 277.953125 156.804688 Z M 277.953125 156.804688 " transform=" rotate(  340 263.386 157.946) " style="fill:none;stroke-width:3;stroke-linecap:butt;stroke-linejoin:round;stroke:rgb(100%,100%,100%);stroke-opacity:0.6;stroke-miterlimit:10;"/>
  <g transform=" rotate(  340 263.386 157.946) " style="fill:rgb(39.607843%,24.313725%,39.215686%);fill-opacity:1;">
   <use x="243.086701" xlink:href="#glyph0-1" y="160.945639"/>
   <use x="250.241701" xlink:href="#glyph0-2" y="160.945639"/>
   <use x="257.396701" xlink:href="#glyph0-3" y="160.945639"/>
   <use x="263.176701" xlink:href="#glyph0-3" y="160.945639"/>
   <use x="268.956701" xlink:href="#glyph0-4" y="160.945639"/>
   <use x="276.529701" xlink:href="#glyph0-5" y="160.945639"/>
  </g>
 </g>
</svg>

<svg xmlns="http://www.w3.org/2000/svg" xmlns:xlink="http://www.w3.org/1999/xlink" viewBox="0 0 497 279"> <defs overflow="visible" style="stroke:none">  <path id="e" d="M1.3 0H.2l1.7-2.5c-.3 0-.5-.1-.7-.3a1.5 1.5 0 0 1-.5-.5c-.2-.2-.2-.5-.2-.9 0-.5.2-1 .5-1.2.4-.3 1-.6 1.6-.6h2.6v6h-1v-2.3H2.9Zm.1-4.1c0 .3.1.5.4.7.2.2.6.4 1 .4h1.6v-2.1H2.6c-.4.1-.7.1-.9.3-.2.2-.3.4-.3.7Zm0 0"/>  <path id="d" d="M1.8-5.9V-1l3.1-4.9h1.2V0h-.9v-4.9L2.3 0H.8v-5.9Zm0 0"/>  <path id="c" d="M3.3.1a3 3 0 0 1-1.4-.3 2.3 2.3 0 0 1-.9-1c-.2-.4-.3-1-.3-1.7s0-1.3.3-1.8c.2-.3.5-.8 1-1 .4-.2.8-.3 1.4-.3a4 4 0 0 1 1.5.3l-.3.8A6 6 0 0 0 4-5h-.7c-1.1-.2-1.7.5-1.7 2 0 .8.1 1.3.4 1.7.3.4.7.6 1.3.6L4-.8c.4 0 .6-.2.8-.3v.9a3 3 0 0 1-.6.2l-.9.1Zm0 0"/>  <path id="b" d="M6-3c0 1-.1 1.8-.6 2.3-.6.5-1.2.8-2.1.8-.5 0-1-.1-1.3-.3a2.5 2.5 0 0 1-1-1.2C.8-1.8.7-2.3.7-3c-.1-1 .3-1.7.6-2.2.5-.5 1.2-.8 2-.8.7 0 1 .1 1.5.4.4.2.7.5 1 1 0 .4.2 1 .2 1.6ZM1.7-3c-.1.7 0 1.3.3 1.7.3.4.7.6 1.3.6.7 0 1-.2 1.3-.6.4-.4.5-1 .5-1.7-.1-.6-.2-1.2-.5-1.6-.2-.4-.6-.6-1.3-.6-.6 0-1 .2-1.3.6-.3.4-.4 1-.4 1.6Zm-.1 0"/>  <path id="a" d="M3.1-7.9c1 0 1.9.2 2.3.7.5.4.6.9.6 1.7l-.2 1.2c-.2.3-.5.7-1 .9-.4.2-1 .3-1.8.3H2V0H1v-7.9Zm0 .9H2v3h.8c.8 0 1.3 0 1.7-.2.5-.3.6-.7.6-1.3-.1-.5-.2-.9-.5-1.1C4.3-7 3.8-7 3-7ZM3-7"/>  <path d="M1 0v-7.9h4.6V0Zm.6-.6H5v-6.7H1.6Zm0 0"/> </defs> <image xlink:href="svg/5/2_2.jpg" width="497" height="279"/> <path d="M246.2 153c1 0 1.8.4 2.3.8.4.3.7.9.7 1.6l-.3 1.2c-.2.4-.5.7-1 1-.4.1-.9.2-1.9.2h-.9v3.1h-1v-7.8Zm0 1h-1.1v3h.7c.9 0 1.4 0 1.8-.3.4-.3.6-.7.6-1.3 0-.4-.2-.8-.5-1-.3-.4-.9-.6-1.7-.6Zm10.1 4c0 1-.2 1.7-.7 2.3-.6.5-1.2.7-2 .7-.6 0-1-.1-1.4-.3a2.5 2.5 0 0 1-1-1c-.2-.6-.3-1.1-.3-1.7 0-1 .1-1.7.7-2.3.4-.5 1.1-.7 2-.7.4 0 1 .1 1.4.3.4.2.7.6 1 1 .2.5.3 1 .3 1.7Zm-4.4 0c0 .7 0 1.2.4 1.6.2.5.7.7 1.3.7.6 0 1-.3 1.3-.7.3-.4.4-1 .4-1.6 0-.7-.1-1.3-.4-1.6-.3-.4-.7-.6-1.3-.6-.6 0-1 .2-1.3.6-.3.3-.4.9-.4 1.6Zm8.8 3a3 3 0 0 1-1.4-.2 2.3 2.3 0 0 1-1-1.1c-.1-.4-.3-1-.3-1.7s.1-1.3.4-1.7c.2-.5.5-.8 1-1 .4-.3.8-.4 1.4-.4a4 4 0 0 1 1.5.4l-.3.7a6 6 0 0 0-.6-.1l-.7-.1c-1.1 0-1.7.7-1.7 2.2 0 .7.1 1.3.4 1.7.3.3.7.5 1.3.5h.8l.7-.4v.9a3 3 0 0 1-.6.3h-.9Zm5.8 0a3 3 0 0 1-1.5-.2 2.3 2.3 0 0 1-1-1.1c0-.4-.2-1-.2-1.7s.1-1.3.2-1.7c.4-.5.7-.8 1.1-1 .4-.3 1-.4 1.4-.4a4 4 0 0 1 1.6.4l-.3.7a6 6 0 0 0-.6-.1l-.7-.1c-1.1 0-1.7.7-1.7 2.2 0 .7.1 1.3.4 1.7.3.3.8.5 1.3.5h.8l.7-.4v.9a3 3 0 0 1-.7.3h-.8Zm4.3-6v5l2.9-5h1.5v6H274v-4l.3-.6v-.4l-3.2 5h-1.2v-6Zm7 6h-1.1l1.7-2.6-.7-.2a1.5 1.5 0 0 1-.5-.6l-.2-.8c0-.6.2-1 .6-1.3.4-.3.9-.4 1.4-.4h2.7v5.8h-.9v-2.3h-1.4Zm.2-4.3c0 .4 0 .7.3.9l1 .2h1.6v-2h-1.7c-.4.1-.8.2-1 .4-.2.1-.2.3-.2.6Zm0 .1" style="fill:none;stroke-width:3;stroke-linecap:butt;stroke-linejoin:round;stroke:#fff;stroke-opacity:.6;stroke-miterlimit:10" transform=" rotate(  340 263.386 157.946) "/> <g style="fill:#653e64;fill-opacity:1" transform=" rotate(  340 263.386 157.946) ">  <use xlink:href="#a" x="243.1" y="160.9"/>  <use xlink:href="#b" x="250.2" y="160.9"/>  <use xlink:href="#c" x="257.4" y="160.9"/>  <use xlink:href="#c" x="263.2" y="160.9"/>  <use xlink:href="#d" x="269" y="160.9"/>  <use xlink:href="#e" x="276.5" y="160.9"/> </g></svg>
